X: 1
T: Seneca Square Dance
T: Waiting for the Federals
O: trad. US arr. 2009 Dave.Reiner
R: reel
S: https://www.patreon.com/posts/rustic-roots-27198819
Z: 2020 John Chambers <jc:trillian.mit.edu>
I: k="_>"
M: C|
L: 1/8
Q: 1/2=100
K: G
"^A"[|] vAA |\
"G"v[AD-][B-D-]k[B2D2] u[B2-D2-]k[BD](vc | d)uD v[B2-D2-]k[B2D2] u[B2D2] |\
"Em"([AD][B-E-]k[B2E2]) u[B2-E2-]k[BE](vB | A)D v[G2-G,2-] k[G2G,2] uA2 |
y8y \
"G"v[AD-][B-D-]k[B2D2] u[B2-D2-]k[BD](vc | d)uD v[B2-D2-]k[B2D2] uB2 |\
"D7"ABA(uG kED)k[FG,][DG,] | "G"v[FG,-][G-G,-]k[GG,](kuF k[G2G,2]) :|
"^B"|: vdd |\
"G"(vD/B/[g-B] g2) g3(ve | [d2D2]) [B2-D2-]k[B2D2] vdd |\
v[g4B4] g3(va | b2) e2- kez vk[g2-B2] |
y8y \
"G"kgaba g2e2 | v[d2-D2-] k[d2D2] (uBA [G2G,2]) |\
"D7"v[AD]BA(uG kED)k[FG,][DG,] | "G"v[FG,-][G-G,-]k[GG,](kuF k[G2G,2]) :|
